X:599
T: "Der Jaeger im Walde"
N: Z1279
O: Europa, Mitteleuropa, Deutschland, Nord - Deutschland
R: Jaeger - Lied
M: 2/4
L: 1/8
K: C
G, | CB,A,G, | A,G,F,
E, | F,G,A,B, | C2DB, | C2z
C | B,DDB, | CEE
C | B,DDB, | CEE
G, | CB,A,G, | A,G,F,
E, | F,G,A,B, | C2DB, | C2z

